!!!!SEGMENT: pl-kk--kk-i-350--005_anonim--propter-veritatem.krn
!!!cenid: 17xx:2065
!!!COM: Anonim
!!!COM-rismid: pe30004985
!!!CDT:
!!!CNT:
!!!OTL: Propter veritatem
!!!PDT:
!!!AGN: Sacred
!!!SMS-siglum: PL-Kk
!!!SMS-shelfmark: Kk.I.350
!!!SMS-shelfwork: 005 W
!!!SMS-variant:
!!!SMS-altvar:
!!!NIFC-rismid: 1001145763
!!!URL-scan: http://repozytorium.nifc.pl/skany/pl-kk-nut--i-350
!!!ONB-nifc: UWAGA: utwory w zbiorze: 1. Gaudeamus, 2. Alleluia assumpta est Maria, 3. Surge propera, 4. Gaudeamus, 5. Propter veritatem, 6. Quae est ista, 7. Gaudeamus omnes, 8. Alleluia assumpta est Maria, 9. Nigra sum
!!!AIN: 1 alto 1 empty 1 tenor 1 vox
!!!key:
**kern	**text	**kern	**text	**kern	**text	**kern	**text
*part4	*part4	*part3	*part3	*part2	*part2	*part1	*part1
*staff4	*staff4	*staff3	*staff3	*staff2	*staff2	*staff1	*staff1
*Iempty	*	*Itenor	*	*Ialto	*	*Ivox	*
*I"Baſso Erpieno	*	*I"Tenore	*	*I"Alto	*	*I"Canto	*
*I'B rip	*	*I'T.	*	*I'A.	*	*I'C.	*
*clefF4	*	*clefC4	*	*clefC3	*	*clefC1	*
*k[b-]	*	*k[b-]	*	*k[b-]	*	*k[b-]	*
*F:	*	*F:	*	*F:	*	*F:	*
*M3/2	*	*M3/2	*	*M3/2	*	*M3/2	*
=1	=1	=1	=1	=1	=1	=1	=1
2r	.	2r	.	2r	.	2r	.
*2\right	*	*	*	*2\right	*	*2\right	*
2F\	Pro-	2A/	Pro-	2c/	Pro-	2cc\	Pro-
2c\	-pter	2A/	-pter	2f\	-pter	2cc\	-pter
=2	=2	=2	=2	=2	=2	=2	=2
2B-\	ve-	2G/	ve-	2e\	ve-	1cc\	ve-
*	*	*2\right	*	*	*	*	*
2A\	.	2c\	.	2f\	.	.	.
2G\	-ri-	2B-\	-ri-	2e\	-ri-	2cc\	-ri-
=3	=3	=3	=3	=3	=3	=3	=3
2F\	-ta-	2A/	-ta-	2f\	-ta-	2cc\	-ta-
2C/	-tem	2G/	-tem	2e\	-tem	2cc\	-tem
2E\	et	2G/	et	2c/	et	2cc\	et
=4	=4	=4	=4	=4	=4	=4	=4
4F\	man-	4A\	man-	4f\	man-	1cc\	ma-
4E\	.	4G\	.	4g\	.	.	.
4F\	.	4A\	.	4f\	.	.	.
4G\	.	4B-\	.	4e\	.	.	.
4A\	-sve-	4c\	-sve-	4f\	-sve-	2cc\	-sue-
4B-\	.	4d\	.	4g\	.	.	.
=5	=5	=5	=5	=5	=5	=5	=5
2.c\	-tu-	2.c\	-tu-	2.e\	-tu-	2.g/	-tu-
4C/	-di-	4c\	-di-	4e\	-di-	4g/	-di-
2C/	-nem	2c\	-nem	2e\	-nem	2g/	-nem,
!LO:LB:g=original	!	!LO:LB:g=original	!	!LO:LB:g=original	!	!	!
=6	=6	=6	=6	=6	=6	=6	=6
2r	.	2r	.	2r	.	2r	.
2B-\	et	2d\	et	2g\	et	2g/	et
4G\	jus-	4B-\	jus-	4e\	jus-	4g/	jus-
4F\	.	4A\	.	4f\	.	4a/	.
!	!	!	!	!	!	!LO:LB:g=original	!
=7	=7	=7	=7	=7	=7	=7	=7
2.E\	-ti-	2.B-\	-ti-	2.g\	-ti-	2.cc\	-ti-
4F\	-ti-	4A\	-ti-	4f\	-ti-	4cc\	-ti-
4F\	-am	4A\	-am	4f\	-am	4cc\	-am
4C/	et	4G\	et	4e\	et	4cc\	et
=8	=8	=8	=8	=8	=8	=8	=8
4F\	de-	4A\	de-	2f\	de-	2cc\	de-
4G\	.	4B-\	.	.	.	.	.
4A\	-du-	4c\	-du-	2f\	-du-	2cc\	-du-
4G\	.	4B-\	.	.	.	.	.
8F\L	.	8A\L	.	2f\	-cet	2cc\	-cet
8G\J	.	8B-\J	.	.	.	.	.
8A\L	-cet	8c\L	-cet	.	.	.	.
8B-\J	.	8d\J	.	.	.	.	.
=9	=9	=9	=9	=9	=9	=9	=9
2c\	te	2e\	te	2g\	te	2cc\	te
4d\	mi-	4B-\	mi-	2g\	mi-	2dd\	mi-
4B-\	.	4d\	.	.	.	.	.
4G\	-ra-	4B-\	-ra-	4e\	-ra-	2cc\	-ra-
4F\	.	4A\	.	4f\	.	.	.
=10	=10	=10	=10	=10	=10	=10	=10
2.E\	-bi-	2.G/	-bi-	2.c/	-bi-	2.cc\	-bi-
4E\	-li-	4G/	-li-	4c/	-li-	4cc\	-li-
2F\	-ter	2A/	-ter	2c/	-ter	2cc\	-ter
!LO:LB:g=original	!	!LO:LB:g=original	!	!	!	!	!
=11	=11	=11	=11	=11	=11	=11	=11
2.B-\	dex-	2.G/	dex-	2.e\	dex-	2.cc\	dex-
4B-\	-te-	4G/	-te-	4e\	-te-	4cc\	-te-
2A\	-ra	2A/	-ra	2f\	-ra	2cc\	-ra
!	!	!	!	!LO:LB:g=original	!	!	!
=12	=12	=12	=12	=12	=12	=12	=12
2B-\	tu-	2B-\	tu-	2g\	tu-	2dd\	tu-
2c\	.	2A\	.	2f\	.	1cc\	.
2C/	.	2G\	.	2e\	.	.	.
=13	=13	=13	=13	=13	=13	=13	=13
1F\	-a	1A\	-a	1f\	-a	1cc\	-a
2r	.	2r	.	2r	.	2r	.
!	!	!	!	!	!	!LO:LB:g=original	!
=14	=14	=14	=14	=14	=14	=14	=14
2r	.	2r	.	2r	.	2r	.
2d\	Au-	2A\	Au-	2f\	Au-	2dd\	Au-
2A\	-di	2c#X\	-di	2e\	-di	2cc#X\	-di
=15	=15	=15	=15	=15	=15	=15	=15
2.F\	fi-	2.A/	Fi-	2.d\	fi-	2.a\	fi-
4E\	-li-	4G/	-li-	4e\	-li-	4a\	-li-
2D\	-a	2F/	-a	2f\	-a	2a\	-a
=16	=16	=16	=16	=16	=16	=16	=16
4D\	et	4F/	et	1.a\	et	1.dd\	et
4E\	.	4G/	.	.	.	.	.
4F\	.	2.A/	.	.	.	.	.
4E\	.	.	.	.	.	.	.
4F\	.	.	.	.	.	.	.
4G\	.	4Bn\	.	.	.	.	.
!LO:LB:g=original	!	!	!	!	!	!	!
=17	=17	=17	=17	=17	=17	=17	=17
2A\	vi-	2c#X\	vi-	2e\	vi-	2ee\	vi-
2AA/	-de	2c#\	-de	2e\	-de	2a\	-de,
!	!	!LO:LB:g=original	!	!	!	!	!
2A\	et	2c#X\	et	2e\	et	2a\	et
=18	=18	=18	=18	=18	=18	=18	=18
2.B-X\	in-	2.c\	in-	2.g\	in-	2.ee\	in-
4B-\	-cli-	4c\	-cli-	4g\	-cli-	4ee\	-cli-
2A\	-na	2d\	-na	2f\	-na	2dd\	-na
!	!	!	!	!LO:LB:g=original	!	!	!
=19	=19	=19	=19	=19	=19	=19	=19
2G\	a-	2c\	a-	2e\	au-	1a\	au-
2F\	.	2d\	.	2f\	.	.	.
2E\	-rem	2c\	-rem	2g\	-rem	2a\	-rem
=20	=20	=20	=20	=20	=20	=20	=20
2D\	tu-	2d\	tu-	2f\	tu-	1.a\	tu-
2A\	.	1c#X\	.	1e\	.	.	.
2AA/	.	.	.	.	.	.	.
=21	=21	=21	=21	=21	=21	=21	=21
2D/	-a	2d\	-a	2f\	-am,	2a\	-am
2r	.	2r	.	2r	.	2r	.
4C#X/	qui-	4A\	qui-	4c#X\	qu-	4ee\	qui-
4AA/	-a	4c#X\	-a	4e\	-ia	4cc#X\	-a
!	!	!	!	!	!	!LO:LB:g=original	!
=22	=22	=22	=22	=22	=22	=22	=22
2D\	con-	1A\	con-	1f\	con-	1dd\	con-
2d\	.	.	.	.	.	.	.
2A\	-cu-	2c#X\	-cu-	2e\	-cu-	2cc#X\	-cu-
!LO:LB:g=original	!	!	!	!	!	!	!
=23	=23	=23	=23	=23	=23	=23	=23
2B-\	-pi-	2d\	-pi-	2f\	-pi-	2dd\	-pi-
2G\	-vit	2B-\	-vit	2g\	-vit	2ee\	-vit
2E\	Rex	2G/	Rex	2g\	Rex	2cc#X\	Rex
!	!	!LO:LB:g=original	!	!	!	!	!
=24	=24	=24	=24	=24	=24	=24	=24
2.C#X/	spe-	2.B-\	spe-	2.g\	spe-	2.ee\	spe-
4C#/	-ci-	4B-\	-ci-	4g\	-ci-	4ee\	-ci-
2D/	-em	2A\	-em	2f\	-em	2dd\	-em
=25	=25	=25	=25	=25	=25	=25	=25
4F\	tu-	1.A\	tu-	4a\	tu-	4ff\	tu-
4G\	.	.	.	4g\	.	4ee\	.
2A\	.	.	.	2f\	.	2dd\	.
2AA/	.	.	.	2e\	.	2cc#X\	.
!	!	!	!	!LO:LB:g=original	!	!	!
=26	=26	=26	=26	=26	=26	=26	=26
2D/	-am	2A\	-am	2f\	-am	2dd\	-am
2r	.	2r	.	2r	.	2r	.
2F\	Al-	2A\	Al-	2f\	Al-	2ccn\	Al-
=27	=27	=27	=27	=27	=27	=27	=27
2A\	-le-	2c\	-le-	1f\	-le-	1cc\	-le-
2F\	.	2A/	.	.	.	.	.
2c\	-lu-	2G/	-lu-	2e\	-lu-	2b-X\	-lu-
=28	=28	=28	=28	=28	=28	=28	=28
1A\	-ia	1F/	-ia	1f\	-ia	1cc\	-ia
2d\	al-	2F/	al-	2d\	al-	2b-\	al-
!	!	!	!	!	!	!LO:LB:g=original	!
=29	=29	=29	=29	=29	=29	=29	=29
2B-\	-le-	1G/	-le-	2d\	-le-	2dd\	-le-
2c\	.	.	.	2e\	.	2cc\	.
2C/	-lu-	2G/	-lu-	2e\	lu-	2cc\	-lu-
!LO:LB:g=original	!	!	!	!	!	!	!
=30	=30	=30	=30	=30	=30	=30	=30
2F\	-ia	2A\	-ia	2f\	-ia	2cc\	-ia
2r	.	2r	.	2r	.	2r	.
2C/	Aſ-	2c\	Aſ-	2g\	Aſ-	2ee\	Aſ-
=31	=31	=31	=31	=31	=31	=31	=31
4F\	-sum-	4c\	-sum-	4a\	-sum-	2cc\	-sum-
4A\	.	4A\	.	4f\	.	.	.
4c\	-pta	2A\	-pta	2f\	-pta	2cc\	-pta
4A\	.	.	.	.	.	.	.
4F\	est	4A\	est	4f\	est	4cc\	est
4F\	Ma-	4A\	Ma-	4f\	Ma-	4cc\	Ma-
!	!	!LO:LB:g=original	!	!	!	!	!
=32	=32	=32	=32	=32	=32	=32	=32
2B-\	-ri-	2d\	-ri-	2f\	-ri-	2dd\	-ri-
4B-\	-a	4d\	-a	2f\	-a	2dd\	-a
4A\	.	4c\	.	.	.	.	.
4G\	in	4B-\	in	4e\	in	2cc\	in
4F\	.	4A\	.	4f\	.	.	.
!	!	!	!	!LO:LB:g=original	!	!	!
=33	=33	=33	=33	=33	=33	=33	=33
2c\	cae-	2G/	cae-	2e\	cae-	2cc\	cae-
2C/	-lum	2G/	-lum	2e\	-lum	2cc\	-lum
2r	.	2r	.	2r	.	2r	.
=34	=34	=34	=34	=34	=34	=34	=34
4B-\	gau-	4d\	gau-	2g\	gau-	2dd\	gau-
4A\	.	4c\	.	.	.	.	.
4G\	-det	4B-\	-det	2g\	-det	2dd\	-det
4F\	.	4A\	.	.	.	.	.
4E\	e-	4G/	e-	4g\	e-	2dd\	e-
4D\	.	4F/	.	4f\	.	.	.
!LO:LB:g=original	!	!	!	!	!	!	!
=35	=35	=35	=35	=35	=35	=35	=35
2C/	-xer-	2E/	-xer-	2.e\	-xer-	2.cc\	-xer-
4D\	.	4F/	.	.	.	.	.
4E\	-ci-	4G/	-ci-	4e\	-ci-	4cc\	-ci-
2F\	-tus	2A/	-tus	2f\	-tus	2cc\	-tus
!	!	!	!	!	!	!LO:LB:g=original	!
=36	=36	=36	=36	=36	=36	=36	=36
4B-\	an-	4G/	an-	4d\	an-	4dd\	an-
4G\	-ge-	4B-/	-ge-	4g\	-ge-	4b-\	-ge-
2c\	-lo-	2A/	-lo-	2f\	-lo-	1cc\	-lo-
2C/	.	2G/	.	2e\	.	.	.
=37	=37	=37	=37	=37	=37	=37	=37
2F\	-rum	2A\	-rum	2f\	-rum	2cc\	-rum
2F\	al-	2A\	a-	2f\	al-	2cc\	al-
2G\	-le-	2B-\	-le-	2e\	-le-	2cc\	-le-
!	!	!LO:PB:g=original	!	!	!	!	!
=38	=38	=38	=38	=38	=38	=38	=38
1A\	-lu-	1c\	-lu-	1f\	-lu-	1cc\	-lu-
2F\	-ia	2A\	-ia	2f\	-ia	2cc\	-ia
=39	=39	=39	=39	=39	=39	=39	=39
2B-\	al-	2d\	al-	2g\	al-	2b-\	al-
2G\	-le-	2B-\	-le-	2e\	-le-	2cc\	-le-
2c\	-lu-	2G\	-lu-	2e\	-lu-	2cc\	-lu-
=40	=40	=40	=40	=40	=40	=40	=40
1.F\	-ia	1.A\	-ia	1.f\	-ia	1.cc\	-ia
==	==	==	==	==	==	==	==
*-	*-	*-	*-	*-	*-	*-	*-
!!!system-decoration: [(s1,s2,s3,s4)]
!!!EED: Leszek Kubiak
!!!EST: 2021-02-26
!!!ENC: Berenika Jozajtis
!!!END: 2021-02-18
